flaticon/productivity/idea.svg

<svg xmlns="http://www.w3.org/2000/svg" width="32" height="32" viewBox="0 0 24 24">
    <path d="M 11.640625 0.0078125 C 7.789062 0.183594 4.679688 3.21875 4.414062 7.0625 C 4.257812 9.304688 5.089844 11.484375 6.691406 13.046875 C 7.78125 14.109375 8.496094 15.441406 8.75 16.894531 C 8.816406 17.285156 8.851562 17.675781 8.851562 18.050781 L 8.851562 21.125 C 8.851562 21.40625 9.082031 21.632812 9.363281 21.632812 L 9.929688 21.632812 L 9.929688 22.878906 C 9.929688 23.496094 10.429688 24 11.046875 24 L 12.953125 24 C 13.570312 24 14.070312 23.496094 14.070312 22.878906 L 14.070312 21.632812 L 14.636719 21.632812 C 14.917969 21.632812 15.148438 21.40625 15.148438 21.125 L 15.148438 18.050781 C 15.148438 17.675781 15.183594 17.285156 15.25 16.894531 C 15.503906 15.441406 16.21875 14.113281 17.308594 13.046875 C 18.789062 11.601562 19.605469 9.671875 19.605469 7.605469 C 19.605469 3.292969 16 -0.1875 11.640625 0.0078125 Z M 13.050781 22.878906 C 13.050781 22.933594 13.007812 22.980469 12.953125 22.980469 L 11.046875 22.980469 C 10.996094 22.980469 10.949219 22.933594 10.949219 22.878906 L 10.949219 21.632812 L 13.050781 21.632812 Z M 16.597656 12.316406 C 15.347656 13.53125 14.535156 15.054688 14.246094 16.71875 C 14.167969 17.167969 14.125 17.613281 14.125 18.050781 L 14.125 20.613281 L 9.875 20.613281 L 9.875 18.050781 C 9.875 17.613281 9.832031 17.167969 9.753906 16.71875 C 9.464844 15.054688 8.648438 13.53125 7.402344 12.316406 C 6.015625 10.960938 5.296875 9.074219 5.433594 7.132812 C 5.664062 3.808594 8.351562 1.183594 11.6875 1.027344 C 15.457031 0.84375 18.582031 3.871094 18.582031 7.605469 C 18.582031 9.394531 17.878906 11.066406 16.597656 12.316406 Z M 16.597656 12.316406"/>
    <path d="M 14.796875 5.589844 L 15.605469 4.785156 L 14.882812 4.0625 L 14.078125 4.867188 C 13.625 4.53125 13.089844 4.304688 12.511719 4.21875 L 12.511719 3.082031 L 11.488281 3.082031 L 11.488281 4.21875 C 10.910156 4.304688 10.375 4.53125 9.921875 4.867188 L 9.117188 4.0625 L 8.394531 4.785156 L 9.203125 5.589844 C 8.867188 6.039062 8.636719 6.574219 8.550781 7.15625 L 7.414062 7.15625 L 7.414062 8.175781 L 8.550781 8.175781 C 8.636719 8.757812 8.867188 9.292969 9.203125 9.742188 L 8.394531 10.546875 L 9.117188 11.269531 L 9.921875 10.464844 C 10.375 10.800781 10.910156 11.03125 11.488281 11.117188 L 11.488281 12.253906 L 12.511719 12.253906 L 12.511719 11.117188 C 13.089844 11.03125 13.625 10.800781 14.078125 10.464844 L 14.882812 11.269531 L 15.605469 10.546875 L 14.796875 9.742188 C 15.132812 9.292969 15.363281 8.757812 15.449219 8.175781 L 16.585938 8.175781 L 16.585938 7.15625 L 15.449219 7.15625 C 15.363281 6.574219 15.132812 6.039062 14.796875 5.589844 Z M 12 10.132812 C 10.640625 10.132812 9.535156 9.027344 9.535156 7.667969 C 9.535156 6.308594 10.640625 5.203125 12 5.203125 C 13.359375 5.203125 14.464844 6.308594 14.464844 7.667969 C 14.464844 9.027344 13.359375 10.132812 12 10.132812 Z M 12 10.132812"/>
</svg>

<svg xmlns="http://www.w3.org/2000/svg" width="32" height="32" viewBox="0 0 24 24">
    <path d="M11.64.008a7.59 7.59 0 0 0-7.226 7.054 7.605 7.605 0 0 0 2.277 5.985c1.09 1.062 1.805 2.394 2.059 3.848.066.39.102.78.102 1.156v3.074c0 .281.23.508.511.508h.567v1.246c0 .617.5 1.121 1.117 1.121h1.906a1.12 1.12 0 0 0 1.117-1.121v-1.246h.567a.51.51 0 0 0 .511-.508v-3.074c0-.375.036-.766.102-1.156.254-1.454.969-2.782 2.059-3.848a7.544 7.544 0 0 0 2.296-5.442c0-4.312-3.605-7.793-7.964-7.597zm1.41 22.87a.1.1 0 0 1-.097.102h-1.906c-.05 0-.098-.046-.098-.101v-1.246h2.102zm3.548-10.562c-1.25 1.215-2.063 2.739-2.352 4.403-.078.449-.121.894-.121 1.332v2.562h-4.25v-2.562c0-.438-.043-.883-.121-1.332-.29-1.664-1.106-3.188-2.352-4.403a6.585 6.585 0 0 1-1.968-5.183 6.572 6.572 0 0 1 6.253-6.106c3.77-.183 6.895 2.844 6.895 6.578 0 1.79-.703 3.461-1.984 4.711zm0 0"/>
    <path d="M14.797 5.59l.808-.805-.722-.723-.805.805a3.488 3.488 0 0 0-1.566-.648V3.082h-1.024v1.137a3.488 3.488 0 0 0-1.566.648l-.805-.804-.722.722.808.805c-.336.45-.566.984-.652 1.566H7.414v1.02h1.137c.086.582.316 1.117.652 1.566l-.808.805.722.723.805-.805c.453.336.988.566 1.566.652v1.137h1.024v-1.137a3.494 3.494 0 0 0 1.566-.652l.805.805.722-.723-.808-.805c.336-.449.566-.984.652-1.566h1.137v-1.02h-1.137a3.458 3.458 0 0 0-.652-1.566zM12 10.133a2.467 2.467 0 0 1-2.465-2.465A2.467 2.467 0 0 1 12 5.203a2.467 2.467 0 0 1 2.465 2.465A2.467 2.467 0 0 1 12 10.133zm0 0"/>
</svg>
